src/topics/icons/phalcon.svg

<svg height="292" preserveAspectRatio="xMidYMid" viewBox="0 0 256 292" width="256" xmlns="http://www.w3.org/2000/svg"><path d="m203.573531 139.85597-17.748494-35.75419 5.658944 23.921868z" fill="#73b08f"/><path d="m182.744685 91.5718826 13.700648 57.8754764-44.056985-46.557603-64.2049862-59.9332831-16.3870463-42.9564729z" fill="#c5e4d3"/><path d="m155.917143 104.324072-57.6939046-27.6598874-31.4961519-33.8363638-4.1210137-22.2890362z" fill="#76c39b"/><path d="m200.050714 151.984676-54.464072-13.883937-104.7385812-60.2510714-40.8480608-56.0596923 157.107886 83.3036557z"/><path d="m143.090857 136.501153v1.608734l-7.034666 13.138067-36.7365861-12.06557-68.2623428-51.2115647-26.57540288-38.0735228 30.48355038 18.2323915 4.6897913 7.2393311z" fill="#73b08f"/><path d="m44.121314 98.0093387-5.0816143-.5905534-17.7856358-6.4960815 36.4181882 33.3662452 9.5985984 7.381911 38.1120645 12.696887z" stroke="#000" stroke-width="1.122449"/><path d="m193.432742 149.497171-.771676 29.57016-2.829458-4.833566-16.462373-1.137327-38.069203-21.893306 8.745633-15.353722z" fill="#76c39b"/><path d="m38.4981481 116.924238 47.3866154 36.213182 49.2192575 16.382169 37.961661 3.448864-37.699857-21.842878z" fill="#c5e4d3"/><path d="m61.4766266 145.772128 32.9247321 18.26294 38.3264293 3.858363-46.300386-14.404562-7.4595111-4.630053z" fill="#76c39b"/><path d="m134.641623 167.151704-53.8731653-4.699159 27.7528453 10.651402 18.229806 2.506211z" fill="#73b08f"/><path d="m122.438812 175.456973-4.630039.682605-21.6068476 3.071728 10.5461986-7.167357z" fill="#76c39b"/><path d="m156.946049 180.124768-1.054906 1.870388-78.854579 45.691166-15.5599374 20.574377 5.5382811-22.177581 17.1423035-23.513586 49.0533458-33.132764z" fill="#76c39b"/><path d="m70.7367044 202.618716-13.8901167 18.26294v-7.973957z"/><path d="m185.20157 183.326885-52.731006 35.75419-4.372815-7.459497-18.262937 38.583648 4.115593 5.658944 3.086695 35.75419-22.1212958-40.898674 18.0057098-44.242607 43.985362-27.265773z" fill="#c5e4d3"/><path d="m112.921514 205.705418-35.2397442 19.034601-1.0289054 26.236882 10.8034288 35.239745v-18.00571z"/><path d="m69.1933676 256.121386.5144456 1.800581 4.6300389 19.549047-6.17339-3.858364z" fill="#73b08f"/><path d="m133.384043 216.570559-4.726984-5.833911-19.742116 37.390058 31.420547 41.102545-7.785619-18.297278z" fill="#73b08f"/><path d="m137.100603 214.337781-4.115591 2.158395-.257224 44.786842 7.716732 16.187996 14.40456-5.395994-.514446-10.792002-15.690685-15.378621z" fill="#76c39b"/><path d="m208.129058 182.777915-23.92187 6.687836-25.979652 22.121289-14.147347-.514446 40.898675-27.523003z"/><path d="m198.296885 185.732856-7.496552-13.791793-67.469004-5.281966 30.253955 12.618025z" fill="#73b08f"/><path d="m158.964673 210.730612 3.343918 7.886188 7.202281 5.166838h1.286121l-.514446 8.43008-22.121288 9.24589-7.459514-17.132106-2.057796-10.061716 6.687837-5.438755z" fill="#73b08f"/><path d="m170.796993 255.092495-13.375657-5.91616-5.144498 10.546199 1.800581 2.572242-.25723 11.317874 9.774523 11.060645-1.543337-20.835168 2.315012-1.028906 7.716727 7.459511-3.601133-8.488402-8.231187-4.372809 1.800581-3.086702 8.745618 3.858364z"/><path d="m174.140911 211.107118-5.144485 12.34678 1.028906 10.546199 10.546199 13.118441-1.286121-21.092398 1.543336-1.028891 8.231187 7.202281-3.343918-7.973956-9.260078-4.887269 1.543337-2.572242 9.517308 4.115593-.25723-3.601148z"/><path d="m221.727421 156.575557-28.551895-6.687835v26.751342l3.343904 5.91616 25.207991.257215 23.92187 8.231187-.771676-3.343918-14.661778-8.488402-29.323584-11.575104 16.719589-.257216-16.205143-7.459511z" fill="#c5e4d3"/><path d="m255.030218 181.029135-10.803429-17.491265-24.693546-7.459511-19.549046 3.601148 15.433453 7.716727-14.404562.514445 27.008558 11.575105 15.433467 7.459511z" fill="#73b08f"/><path d="m240.95192 201.84704 4.115593-6.173375-3.086688-7.973957 12.861211-7.202281.25723 14.661792-7.716727 6.945051z"/><path d="m251.264829 178.835515-8.828195-4.119812-4.708369 4.119812" stroke="#000" stroke-width=".3"/></svg>

<?xml version="1.0" encoding="UTF-8" standalone="no"?>
<svg width="256px" height="292px" viewBox="0 0 256 292" version="1.1" xmlns="http://www.w3.org/2000/svg" xmlns:xlink="http://www.w3.org/1999/xlink" preserveAspectRatio="xMidYMid">
	<g>
		<path d="M203.573531,139.85597 L185.825037,104.10178 L191.483981,128.023648 L203.573531,139.85597 Z" fill="#73B08F"></path>
		<path d="M182.744685,91.5718826 L196.445333,149.447359 L152.388348,102.889756 L88.1833618,42.9564729 L71.7963155,0 L182.744685,91.5718826 Z" fill="#C5E4D3"></path>
		<path d="M155.917143,104.324072 L98.2232384,76.6641846 L66.7270865,42.8278208 L62.6060728,20.5387846 L155.917143,104.324072 Z" fill="#76C39B"></path>
		<path d="M200.050714,151.984676 L145.586642,138.100739 L40.8480608,77.8496676 L0,21.7899753 L157.107886,105.093631 L200.050714,151.984676 Z" fill="#000000"></path>
		<path d="M143.090857,136.501153 L143.090857,138.109887 L136.056191,151.247954 L99.3196049,139.182384 L31.0572621,87.9708193 L4.48185922,49.8972965 L34.9654096,68.129688 L39.6552009,75.3690191 L143.090857,136.501153 Z" fill="#73B08F"></path>
		<path d="M44.121314,98.0093387 L39.0396997,97.4187853 L21.2540639,90.9227038 L57.6722521,124.288949 L67.2708505,131.67086 L105.382915,144.367747 L44.121314,98.0093387 Z" stroke="#000000" stroke-width="1.12244904" fill="#000000"></path>
		<path d="M193.432742,149.497171 L193.432742,149.497171 L192.661066,179.067331 L189.831608,174.233765 L173.369235,173.096438 L135.300032,151.203132 L144.045665,135.84941 L193.432742,149.497171 Z" fill="#76C39B"></path>
		<path d="M38.4981481,116.924238 L85.8847635,153.13742 L135.104021,169.519589 L173.065682,172.968453 L135.365825,151.125575 L38.4981481,116.924238 Z" fill="#C5E4D3"></path>
		<path d="M61.4766266,145.772128 L94.4013587,164.035068 L132.727788,167.893431 L86.427402,153.488869 L78.9678909,148.858816 L61.4766266,145.772128 Z" fill="#76C39B"></path>
		<path d="M134.641623,167.151704 L80.7684577,162.452545 L108.521303,173.103947 L126.751109,175.610158 L134.641623,167.151704 Z" fill="#73B08F"></path>
		<path d="M122.438812,175.456973 L117.808773,176.139578 L96.2019254,179.211306 L106.748124,172.043949 L122.438812,175.456973 Z" fill="#76C39B"></path>
		<path d="M156.946049,180.124768 L155.891143,181.995156 L77.036564,227.686322 L61.4766266,248.260699 L67.0149077,226.083118 L84.1572112,202.569532 L133.210557,169.436768 L156.946049,180.124768 Z" fill="#76C39B"></path>
		<path d="M70.7367044,202.618716 L56.8465877,220.881656 L56.8465877,212.907699 L70.7367044,202.618716 Z" fill="#000000"></path>
		<path d="M185.20157,183.326885 L132.470564,219.081075 L128.097749,211.621578 L109.834812,250.205226 L113.950405,255.86417 L117.0371,291.61836 L94.9158042,250.719686 L112.921514,206.477079 L156.906876,179.211306 L185.20157,183.326885 Z" fill="#C5E4D3"></path>
		<path d="M112.921514,205.705418 L77.6817698,224.740019 L76.6528644,250.976901 L87.4562932,286.216646 L87.4562932,268.210936 L112.921514,205.705418 Z" fill="#000000"></path>
		<path d="M69.1933676,256.121386 L69.7078132,257.921967 L74.3378521,277.471014 L68.1644621,273.61265 L69.1933676,256.121386 Z" fill="#73B08F"></path>
		<path d="M133.384043,216.570559 L128.657059,210.736648 L108.914943,248.126706 L140.33549,289.229251 L132.549871,270.931973 L133.384043,216.570559 Z" fill="#73B08F"></path>
		<path d="M137.100603,214.337781 L132.985012,216.496176 L132.727788,261.283018 L140.44452,277.471014 L154.84908,272.07502 L154.334634,261.283018 L138.643949,245.904397 L137.100603,214.337781 Z" fill="#76C39B"></path>
		<path d="M208.129058,182.777915 L184.207188,189.465751 L158.227536,211.58704 L144.080189,211.072594 L184.978864,183.549591 L208.129058,182.777915 Z" fill="#000000"></path>
		<path d="M198.296885,185.732856 L190.800333,171.941063 L123.331329,166.659097 L153.585284,179.277122 L198.296885,185.732856 Z" fill="#73B08F"></path>
		<path d="M158.964673,210.730612 L162.308591,218.6168 L169.510872,223.783638 L170.796993,223.783638 L170.282547,232.213718 L148.161259,241.459608 L140.701745,224.327502 L138.643949,214.265786 L145.331786,208.827031 L158.964673,210.730612 Z" fill="#73B08F"></path>
		<path d="M170.796993,255.092495 L157.421336,249.176335 L152.276838,259.722534 L154.077419,262.294776 L153.820189,273.61265 L163.594712,284.673295 L162.051375,263.838127 L164.366387,262.809221 L172.083114,270.268732 L168.481981,261.78033 L160.250794,257.407521 L162.051375,254.320819 L170.796993,258.179183 L170.796993,255.092495 Z" fill="#000000"></path>
		<path d="M174.140911,211.107118 L168.996426,223.453898 L170.025332,234.000097 L180.571531,247.118538 L179.28541,226.02614 L180.828746,224.997249 L189.059933,232.19953 L185.716015,224.225574 L176.455937,219.338305 L177.999274,216.766063 L187.516582,220.881656 L187.259352,217.280508 L174.140911,211.107118 Z" fill="#000000"></path>
		<path d="M221.727421,156.575557 L193.175526,149.887722 L193.175526,176.639064 L196.51943,182.555224 L221.727421,182.812439 L245.649291,191.043626 L244.877615,187.699708 L230.215837,179.211306 L200.892253,167.636202 L217.611842,167.378986 L201.406699,159.919475 L221.727421,156.575557 Z" fill="#C5E4D3"></path>
		<path d="M255.030218,181.029135 L244.226789,163.53787 L219.533243,156.078359 L199.984197,159.679507 L215.41765,167.396234 L201.013088,167.910679 L228.021646,179.485784 L243.455113,186.945295 L255.030218,181.029135 Z" fill="#73B08F"></path>
		<path d="M240.95192,201.84704 L245.067513,195.673665 L241.980825,187.699708 L254.842036,180.497427 L255.099266,195.159219 L247.382539,202.10427 L240.95192,201.84704 Z" fill="#000000"></path>
		<path d="M251.264829,178.835515 L242.436634,174.715703 L237.728265,178.835515" stroke="#000000" stroke-width="0.30000001"></path>
	</g>
</svg>
